CommonLib.Web/CommonLib.Web/wwwroot/icons/regular/ornament.svg

<svg xmlns="http://www.w3.org/2000/svg" viewBox="0 0 384 512"><!--! Font Awesome Pro 6.2.0 by @fontawesome - https://fontawesome.com License - https://fontawesome.com/license (Commercial License) Copyright 2022 Fonticons, Inc. --><path d="M287.1 153.9L287.1 112c0-8.75-7.256-16-16.01-16h-24.9c5.5-9.375 8.887-20.25 8.887-32c0-35.25-28.73-64-63.98-64S127.1 28.75 127.1 64c0 11.75 3.366 22.62 8.866 32H111.1c-8.75 0-15.1 7.25-15.1 16l.0016 41.94C38.74 187.2 0 249 0 320c0 106 85.99 192 191.1 192C297.1 512 384 426 384 320C384 249 345.2 187.2 287.1 153.9zM192 48c8.75 0 16 7.25 16 16S200.8 80 192 80S176 72.75 176 64S183.2 48 192 48zM192 176c42.38 0 80.25 18.75 106.5 48h-213C111.8 194.8 149.6 176 192 176zM336 320c0 16.88-3.5 32.88-8.75 48H56.75C51.38 352.9 48 336.9 48 320s3.5-32.88 8.75-48h270.4C332.5 287.1 336 303.1 336 320zM192 464c-42.38 0-80.25-18.75-106.5-48h213.1C272.2 445.2 234.4 464 192 464z"/></svg>

<svg xmlns="http://www.w3.org/2000/svg" viewBox="0 0 384 512"><path d="M288 153.9V112c0-8.8-7.2-16-16-16h-24.9c5.5-9.4 8.9-20.3 8.9-32 0-35.3-28.7-64-64-64s-64 28.7-64 64c0 11.7 3.4 22.6 8.9 32H112c-8.8 0-16 7.2-16 16v41.9C38.7 187.1 0 249 0 320c0 106 86 192 192 192s192-86 192-192c0-71-38.7-132.9-96-166.1zM192 48c8.8 0 16 7.2 16 16s-7.2 16-16 16-16-7.2-16-16 7.2-16 16-16zm0 128c42.4 0 80.2 18.8 106.5 48h-213c26.3-29.2 64.1-48 106.5-48zm144 144c0 16.9-3.5 32.9-8.8 48H56.8c-5.4-15.1-8.8-31.1-8.8-48s3.5-32.9 8.8-48h270.3c5.4 15.1 8.9 31.1 8.9 48zM192 464c-42.4 0-80.2-18.8-106.5-48h213.1c-26.4 29.2-64.2 48-106.6 48z"/></svg>
